X:1
T:Title
%%score { ( 1 3 4 ) | ( 2 5 ) }
L:1/8
Q:1/4=94
M:4/4
K:Ab
V:1 treble nm="Grand Piano"
V:3 treble 
V:4 treble 
V:2 bass 
V:5 bass 
V:1
 [CA]2 [CA]>[CB] [CA][EG][DF][CE] | [CF][CG][CA][CF] G4 | B2 B>c BAGB | [=DB][DA][EG][DF] z2 _D2 | %4
w: C.~Austin~Miles * * * * * *||||
 [CA]2 [CA]>[CB] [CA][EG][DF][CE] | [DF][EG][FA][FB] [Ec]3 E | FGAB cd e>d | c>B AG [CA]4 | %8
w: ||||
 z4 [CEAc]4[K:bass] | [CF][CE][C=D][CE] [_DG]4 | [EGBd]2 [EGBd]2 z2 z G | %11
w: |||
 [CEA][CEG][CEA][CEB] [CEAc]4 | z4 [CFAc]4 | dcBA F4 | z4 [EAce]4 | cBAG [CA]4 |] %16
w: |||||
V:2
 [A,,A,]2 [A,,A,]>[A,,A,] [A,,A,][A,,A,][A,,A,][A,,A,] | [A,,A,][A,,A,][A,,A,][A,,A,] [E,B,D]4 | %2
 [E,G,E]2 [E,G,E]>[E,A,E] [E,G,E][E,CE][E,B,E][E,G,E] | [B,,F,][B,,F,][B,,B,][B,,A,] [E,G,]4 | %4
 [A,,A,]2 [A,,A,]>[A,,A,] [A,,A,][A,,A,][A,,A,][A,,A,] | [D,A,][D,A,][D,A,][D,A,] [A,,A,]3 E, | %6
 F,G,A,B, CD E>[D,A,] | [E,A,E]>[E,G,D] [E,A,C][E,B,D] [A,,A,]4 | [A,,A,]2 [E,,E,]2 [A,,A,]2 z C | %9
 [A,,A,]2 [E,,E,]2 [G,,G,]2 [E,,E,]2 | [G,,G,]2 [E,,E,]2 [G,,G,]2 z E | %11
 [A,,A,]2 [E,,E,]2 [A,,A,]2 [E,,E,]2 | [A,,A,]2 [G,,G,]2 [F,,F,]G,,A,,[C,C] | %13
 [D,D][C,C][B,,B,][A,,A,] [D,A,D]4 | [D,B,D]2 [=D,_C]2 [E,=C]2 z E | %15
 [E,A,E][E,DE][E,CE][E,B,D] [A,,A,]4 |] %16
V:3
 x8 | x8 | x8 | z4 E4 | x8 | x8 | x8 | x8 | [CEAc]2 [CEAc]2 z2[K:bass] z E | x8 | z4 [EGBd]4 | x8 | %12
 [CEAc]2 [C=EGBc]2 z G,A,c | x8 | [FB]2 [Ff]2 z2 z A | x8 |] %16
V:4
 x8 | x8 | x8 | x8 | x8 | x8 | x8 | x8 | z4 z2[K:bass] E,2 | x8 | z4 z2 E,2 | x8 | x8 | x8 | %14
 z4 z2 C2 | x8 |] %16
V:5
 x8 | x8 | x8 | x8 | x8 | x8 | x8 | x8 | z4 z2 E,,2 | x8 | z4 z2 E,,2 | x8 | x8 | x8 | z4 z2 E,2 | %15
 x8 |] %16

